svgs/duotone/arrow-right-to-city.svg

<svg xmlns="http://www.w3.org/2000/svg" viewBox="0 0 640 512"><!--! Font Awesome Pro 6.6.0 by @fontawesome - https://fontawesome.com License - https://fontawesome.com/license (Commercial License) Copyright 2024 Fonticons, Inc. --><defs><style>.fa-secondary{opacity:.4}</style></defs><path class="fa-secondary" d="M288 48l0 416c0 26.5 21.5 48 48 48l96 0 160 0c26.5 0 48-21.5 48-48l0-224c0-26.5-21.5-48-48-48l-24 0 0-72c0-13.3-10.7-24-24-24s-24 10.7-24 24l0 72-40 0 0-144c0-26.5-21.5-48-48-48L336 0c-26.5 0-48 21.5-48 48zm64 32c0-8.8 7.2-16 16-16l32 0c8.8 0 16 7.2 16 16l0 32c0 8.8-7.2 16-16 16l-32 0c-8.8 0-16-7.2-16-16l0-32zm0 96c0-8.8 7.2-16 16-16l32 0c8.8 0 16 7.2 16 16l0 32c0 8.8-7.2 16-16 16l-32 0c-8.8 0-16-7.2-16-16l0-32zm0 96c0-8.8 7.2-16 16-16l32 0c8.8 0 16 7.2 16 16l0 32c0 8.8-7.2 16-16 16l-32 0c-8.8 0-16-7.2-16-16l0-32zm160 0c0-8.8 7.2-16 16-16l32 0c8.8 0 16 7.2 16 16l0 32c0 8.8-7.2 16-16 16l-32 0c-8.8 0-16-7.2-16-16l0-32zm0 96c0-8.8 7.2-16 16-16l32 0c8.8 0 16 7.2 16 16l0 32c0 8.8-7.2 16-16 16l-32 0c-8.8 0-16-7.2-16-16l0-32z"/><path class="fa-primary" d="M121.4 153.4c12.5-12.5 32.8-12.5 45.3 0l80 80c12.5 12.5 12.5 32.8 0 45.3l-80 80c-12.5 12.5-32.8 12.5-45.3 0s-12.5-32.8 0-45.3L146.7 288 32 288c-17.7 0-32-14.3-32-32s14.3-32 32-32l114.7 0-25.4-25.4c-12.5-12.5-12.5-32.8 0-45.3z"/></svg>

<svg xmlns="http://www.w3.org/2000/svg" viewBox="0 0 640 512"><!--! Font Awesome Pro 6.5.2 by @fontawesome - https://fontawesome.com License - https://fontawesome.com/license (Commercial License) Copyright 2024 Fonticons, Inc. --><defs><style>.fa-secondary{opacity:.4}</style></defs><path class="fa-secondary" d="M336 0c-26.5 0-48 21.5-48 48V464c0 26.5 21.5 48 48 48h96H592c26.5 0 48-21.5 48-48V240c0-26.5-21.5-48-48-48H568V120c0-13.3-10.7-24-24-24s-24 10.7-24 24v72H480V48c0-26.5-21.5-48-48-48H336zm32 64h32c8.8 0 16 7.2 16 16v32c0 8.8-7.2 16-16 16H368c-8.8 0-16-7.2-16-16V80c0-8.8 7.2-16 16-16zM352 176c0-8.8 7.2-16 16-16h32c8.8 0 16 7.2 16 16v32c0 8.8-7.2 16-16 16H368c-8.8 0-16-7.2-16-16V176zm16 80h32c8.8 0 16 7.2 16 16v32c0 8.8-7.2 16-16 16H368c-8.8 0-16-7.2-16-16V272c0-8.8 7.2-16 16-16zm144 16c0-8.8 7.2-16 16-16h32c8.8 0 16 7.2 16 16v32c0 8.8-7.2 16-16 16H528c-8.8 0-16-7.2-16-16V272zm16 80h32c8.8 0 16 7.2 16 16v32c0 8.8-7.2 16-16 16H528c-8.8 0-16-7.2-16-16V368c0-8.8 7.2-16 16-16z"/><path class="fa-primary" d="M121.4 153.4c12.5-12.5 32.8-12.5 45.3 0l80 80c12.5 12.5 12.5 32.8 0 45.3l-80 80c-12.5 12.5-32.8 12.5-45.3 0s-12.5-32.8 0-45.3L146.7 288H32c-17.7 0-32-14.3-32-32s14.3-32 32-32H146.7l-25.4-25.4c-12.5-12.5-12.5-32.8 0-45.3z"/></svg>
